X:1
T:Minuet in G WoO 10 No 2
T:Menuett in G WoO 10, Nr. 2
T:Ludwig van Beethoven 
C:Ludwig van Beethoven
%%score 1 { 2 | ( 3 4 ) }
L:1/8
Q:1/4=92
M:3/4
K:G
V:1 treble nm="Vn"
V:2 treble nm="Pf"
V:3 bass 
V:4 bass 
V:1
!mf! (uB>c) | d>^c d>c d>c | d4 e>B | c4 d>A | B2 z2 (G>A) | B>^A B>A B>A | B4 (=AG) | %7
 (GF) (FAGE) | D2 z2 ::!f! (dg) | (g2 f2 g2) | a4 (g/f/e/d/) |!>(! (c2 B2) (e>c) | %13
 (B2 A)!>)! z!p! (G>A) | B>!<(!^A B>A B>A!<)! |!mp! B4 c>^G |!>(! =A4 B>F!>)! |1!p! G2 z2 :|2 %18
 G2 z!fine! |]:!p! (d^cd) |[Q:1/4=122] (!>!B.d) (.G.B .D.B) | (!>!A.c) (.F.A .D.F) | %22
 (GF) (.G.A.B.^c) | (d^c) (.d.e.d.=c) | (B^A) (.B.c)(.B.=A) | (G.B) (.A.G) (.F.A) | %26
 (EFG) .E(.^C.A,) | D2 z :: (ud^cd) | (e=cA) (BAB) | (cAF) (d^cd) | (e=cA) (BAB) | (cAF) (d^cd) | %33
 (B.d) (.G.B) .D g | (e.g) (.c.e .A.c) | %35
 (.F.A) (!tenuto!.D!<(!!tenuto!.E!tenuto!.^E!tenuto!.F)!<)! |1!>(! (A2 G)!>)! :|2 %37
[Q:1/4=92]!>(! (A2 G)!>)! z!D.C.! |] %38
V:2
!p! G>A | B>^A B>A B>A | B4 =c>^G | =A4 B>F | G2 z2 B,>D | G>F G>F G>F | G4 (FE) | (ED)D(FE^C) | %8
 D2 z2 :: z2 |!mf! d2 c2 B2 | A6 |!>(! A2 G2 c>A | G2 F!>)! z!p! B,>C |!p! D>^C D>C D>C | D4 E>B, | %16
 C4 D>A, |1 B,2 z2 :|2 B,2 z |]: z z2 | z6 | z6 | z6 | z6 | z6 | z6 | z6 | z2 z :: z z2 | %29
 z2 z!p![I:staff +1] (D^CD | ECA,) (B,^A,B, | CA,F,)[I:staff -1] z z2 | z2 z .B.G.F | %33
 [Gd]2 [GB]2 [DG]2 | [CE]2[I:staff +1] E,2 A,2 | F,2 A,2 C2 |1 (C2 B,) :|2 (C2 B,)[I:staff -1] z |] %38
V:3
 z2 |!p! G,,2 B,,2 D,2 | G,2 G,,2 z2 | D,2 D,,2 z2 | G,,2 G,,,2 z2 | G,,2 B,,2 ^D,2 | E,2 F,2 G,2 | %7
 A,2 z2 A,,2 | D,2 !>!D,,2 :: z2 |!mf! ([B,D]2 [A,D]2 [G,D]2) | D6 | G,4 C,2 | D,2 z2 z2 | %14
!p! [G,,,G,,]2!<(! [B,,,B,,]2 [D,,D,]2 | [G,,G,]2!<)!!mp! [=F,,=F,]2!p! [E,,E,]2- | %16
 [E,,E,]2!mp! [_E,,_E,]2!>(! [D,,D,]2 |1 G,,2!>)!!p! G,,,2 :|2 G,,2 G,,, |]: z z2 | %20
!p! G,,2 D,2 G,2 | C,2 D,2 F,2 | B,,2 D,2 G,2 | F,2 A,2 D2 | G,2 B,2 ^D,2 | E,2 ^C,2 =D,2 | %26
 G,,2 z2 A,,2 | D,2 z :: z z2 |!mp! D,,6- | D,,6- | D,, z z (G,F,G, | A,F,D,) D,E,F, | %33
 G,2 B,2 B,,2 | C,6 | D,6 |1 G,3 :|2 G,3 z |] %38
V:4
 x2 | x6 | x6 | x6 | x6 | x6 | x6 | x6 | x4 :: x2 | x6 | F,2 D,2!>(! F,2 | x6 | x6!>)! | x6 | x6 | %16
 x6 |1 x4 :|2 x3 |]: x3 | x6 | x6 | x6 | x6 | x6 | x6 | x6 | x3 :: x3 | x6 | x6 | x6 | x6 | x6 | %34
 x6 | x6 |1 x3 :|2 x4 |] %38

